X: 25
T: the MAID PEEPT OUT AT THE WINDOW
T: or the FRIAR IN THE WELL
B: "FIFTY OLD ENGLISH FOLK DANCE AIRS", Edgar H. Hunt ed., Schott & Co. Ltd. pub., London 1939
Z: 2004-2014 John Chambers <jc:trillian.mit.edu>
M: 6/8
L: 1/8
K: Gm
D |\
G2G G>AB | (A2G) E3 |\
B2B c>de | (d2B) G2 :|\
|: G | (B2c) d>ed | (c2B) A2G |
(F2E) (F2G) | A>GF E3 |\
D2D G2G | (F>E)F E2E |\
D2G F>GA | G3- G2 :|

%%sep 1 1 500
%%sep 1 1 500
